components/brave_wallet_ui/assets/svg-icons/unlock-wallet-icons/unlock-wallet-icon-light.svg

<svg width="92" height="99" viewBox="0 0 92 99" fill="none" xmlns="http://www.w3.org/2000/svg">
<path opacity="0.1" d="M68.2768 40.6899C68.5583 42.0964 68.7449 72.8523 68.7449 86.0704C68.7449 87.008 67.9952 87.7589 67.1541 87.7589C66.2179 87.7589 65.5634 87.008 65.5634 86.1656C65.4683 69.1013 65.3769 43.0337 65.0953 41.345C64.9088 40.5025 65.4683 39.6564 66.4044 39.4697C67.2492 39.1876 68.0903 39.8438 68.2768 40.6899ZM64.8137 32.4378C60.5094 26.2478 53.4879 22.4968 45.904 22.4968C33.2657 22.4968 23.0633 32.7154 23.0633 45.3737V66.3752C23.0633 67.3128 23.813 67.9684 24.654 67.9684C25.4951 67.9684 26.2448 67.2176 26.2448 66.3752V45.3765C26.2448 34.5935 35.0433 25.7814 45.8089 25.7814C52.2669 25.7814 58.2609 28.968 61.9101 34.3156C62.3781 35.0664 63.4094 35.2532 64.1554 34.7844C65.0952 34.2167 65.2817 33.1875 64.8136 32.4366L64.8137 32.4378ZM45.904 29.9984C44.1268 29.9984 42.3458 30.2805 40.755 30.9361C39.914 31.2181 39.4459 32.1558 39.7238 32.9982C40.0053 33.8406 40.9415 34.3094 41.7826 34.0311C43.0917 33.5623 44.496 33.2802 45.9002 33.2802C52.5485 33.2802 57.8842 38.7194 57.8842 45.2831V45.3783C57.8842 45.7519 59.8516 78.665 55.8253 90.0124C55.5437 90.8549 55.9204 91.7925 56.8566 92.0745C57.0431 92.1697 57.2296 92.1697 57.4198 92.1697C58.0744 92.1697 58.7289 91.7961 58.9191 91.0453C63.1319 79.229 61.3547 47.0713 61.2596 45.1004C61.1645 36.8446 54.3298 29.9995 45.9045 29.9995L45.904 29.9984ZM33.9201 45.2831C33.9201 42.7522 34.6697 40.3128 36.1654 38.346C36.7285 37.5951 36.5384 36.5659 35.7924 36.0971C35.0427 35.5331 34.0151 35.7235 33.5471 36.4707C31.6747 39.0969 30.7385 42.1919 30.7385 45.3784C30.7385 45.6604 31.3017 73.4123 24.3718 86.2619C23.9038 87.0127 24.2768 88.0419 25.0264 88.5107C25.308 88.606 25.5896 88.6975 25.7761 88.6975C26.3393 88.6975 26.8988 88.4155 27.1804 87.8551C34.5746 74.1635 34.0152 46.4073 33.9201 45.2831ZM52.3617 68.6325C51.4255 68.6325 50.6758 69.2881 50.6758 70.2257C50.3028 80.3533 49.0851 87.7589 47.3041 91.5095C46.9311 92.3519 47.209 93.2895 48.0538 93.6668C48.2403 93.7621 48.5219 93.8536 48.8034 93.8536C49.458 93.8536 50.0212 93.48 50.3028 92.916C52.3616 88.6966 53.5794 81.0997 54.0475 70.3167C53.9561 69.4743 53.2979 68.7241 52.3617 68.6325ZM45.9036 37.4996C41.6908 37.4996 38.2278 40.9682 38.2278 45.2829C38.2278 45.6565 38.6958 78.6652 31.6746 89.0703C31.2065 89.8211 31.393 90.8503 32.1427 91.3192C32.4242 91.506 32.7058 91.6012 33.0788 91.6012C33.642 91.6012 34.1101 91.3192 34.388 90.8503C42.0638 79.5985 41.5957 46.4985 41.5044 45.1876C41.5044 42.7482 43.4718 40.7814 45.9036 40.7814C48.3391 40.7814 50.3029 42.752 50.3029 45.1876V45.2829C50.3029 45.3781 50.7709 52.9709 50.7709 62.1606C50.7709 63.0982 51.5206 63.8491 52.3617 63.8491C53.2979 63.8491 53.9524 63.0983 53.9524 62.2559C53.9524 53.3482 53.5794 45.847 53.4843 45.1915C53.6745 40.8768 50.2115 37.4996 45.9036 37.4996ZM7.42514 28.3136C14.1685 13.3111 29.1471 3.4658 45.6218 3.37016C46.558 3.37016 47.2126 2.61931 47.2126 1.68164C47.2126 0.743966 46.4629 0.0883789 45.6218 0.0883789C27.9301 0.183607 11.7334 10.7757 4.43033 26.998C4.05732 27.8405 4.43033 28.7781 5.27142 29.1554C5.45793 29.2506 5.73951 29.3422 5.92601 29.3422C6.48917 29.3422 7.14719 28.9692 7.42514 28.3136ZM51.8932 0.462502C50.9571 0.367274 50.2074 1.02656 50.0209 1.86898C49.8344 2.7114 50.584 3.5575 51.4251 3.74428C72.3972 6.46563 88.2176 24.4683 88.2176 45.6601C88.2176 46.5978 88.9672 47.2534 89.8083 47.2534C90.7445 47.2534 91.399 46.5025 91.399 45.6601C91.4941 22.8743 74.4559 3.4658 51.8932 0.462502ZM3.68046 45.5654C3.30745 40.7819 4.14854 38.0642 5.17983 34.5958L5.36633 33.845C5.64791 33.0026 5.08475 32.0649 4.24367 31.7829C3.4026 31.5009 2.46645 32.0649 2.18485 32.9073L1.99835 33.6582C0.96706 37.3135 0.0308903 40.5038 0.403954 45.8477C0.590458 48.5653 1.15362 50.7227 1.62172 52.6933C2.08981 54.6638 2.46282 56.2571 2.37139 57.6636C2.27631 58.6012 2.93455 59.3521 3.87076 59.4436H4.05726C4.89836 59.4436 5.55664 58.788 5.64801 57.9419C5.83451 55.9713 5.36642 54.0045 4.80691 51.8471C4.33883 50.0671 3.87059 48.0047 3.68046 45.5654ZM45.9036 7.59053C40.5682 7.59053 35.3239 8.71496 30.4568 10.8723C29.6157 11.2459 29.239 12.1835 29.6157 13.0297C29.9887 13.8721 30.9248 14.2494 31.7696 13.8721C36.264 11.9015 40.9449 10.8723 45.8122 10.8723C64.9082 10.8723 80.546 26.4392 80.546 45.6611V53.8179C80.546 54.7556 81.2956 55.4112 82.1367 55.4112C82.9778 55.4112 83.7275 54.6603 83.7275 53.8179V45.6611C83.914 24.6558 66.8719 7.59053 45.9036 7.59053ZM11.5471 47.2541L11.2655 45.3788C9.48829 34.5958 18.0052 22.593 26.8078 16.6848C27.5575 16.216 27.744 15.1831 27.2759 14.4359C26.8078 13.6851 25.7765 13.4983 25.0306 13.9671C15.0108 20.5307 6.02165 33.6578 7.98948 45.8473L8.27106 47.8178C9.8618 57.5675 10.798 63.4757 7.14841 71.0725C6.7754 71.915 7.05333 72.8526 7.89807 73.2299C8.08458 73.3251 8.36616 73.4167 8.64774 73.4167C9.2109 73.4167 9.86551 73.0431 10.1471 72.479C14.2611 63.9449 13.233 57.3808 11.5471 47.2541ZM59.6644 18.2788C58.8233 17.9052 57.8871 18.1836 57.5104 19.0297C57.1374 19.8721 57.4154 20.8097 58.2601 21.2785C67.4353 25.9668 73.2388 35.2477 73.2388 45.5618V81.097C73.2388 82.0346 73.9885 82.6902 74.8296 82.6902C75.6707 82.6902 76.4203 81.9394 76.4203 81.097L76.424 45.4699C76.3289 33.9396 69.962 23.5315 59.6644 18.2788ZM18.7547 45.2841C18.1001 39.1894 20.3454 32.999 24.9349 27.8419C30.2703 21.934 38.1368 18.3698 45.9032 18.3698C48.2437 18.3698 50.489 18.6518 52.738 19.2122C53.5791 19.399 54.5153 18.9302 54.7055 17.9925C54.892 17.1501 54.4239 16.2125 53.4877 16.0219C50.9608 15.3663 48.4339 15.0843 45.8119 15.0843C37.1047 15.0843 28.3064 19.0217 22.4076 25.6807C17.1636 31.4934 14.7318 38.6212 15.3863 45.7445V45.9313C19.9721 67.0285 11.4552 77.9981 11.36 78.0937C10.7969 78.8446 10.892 79.8738 11.6416 80.4379C11.9232 80.7199 12.2962 80.8115 12.6729 80.8115C13.141 80.8115 13.6091 80.6247 13.9821 80.2474C14.4465 79.5075 23.6221 67.8825 18.7547 45.2841ZM82.3187 57.8505C81.3826 57.8505 80.728 58.6014 80.728 59.4438V70.8822C80.728 71.8198 81.4777 72.4755 82.3187 72.4755C83.1598 72.4755 83.9095 71.7246 83.9095 70.8822L83.9132 59.4438C83.9132 58.5977 83.1635 57.8505 82.3187 57.8505ZM23.6218 71.4465C22.6856 71.3512 21.936 71.9153 21.7495 72.853C21.4679 74.915 20.0636 80.7277 17.7232 82.7939C17.0686 83.4496 16.9735 84.4825 17.6281 85.1381C17.9097 85.5117 18.3778 85.7021 18.8459 85.7021C19.2189 85.7021 19.5956 85.5153 19.9685 85.2333C23.5267 81.9515 24.8359 74.2637 25.0224 73.3261C25.1211 72.3847 24.558 71.5381 23.6218 71.4465ZM47.5896 45.5654C47.4946 44.6278 46.7486 43.9722 45.9038 43.9722C44.9676 44.0674 44.3131 44.8146 44.3131 45.6607C44.3131 45.8475 45.3443 65.8202 43.1904 79.2295C43.0039 80.1672 43.6585 81.0096 44.4995 81.1048H44.7811C45.5308 81.1048 46.2805 80.5408 46.3719 79.6984C48.7123 66.0987 47.681 46.4074 47.5896 45.5654ZM44.0315 83.6359C43.1904 83.4491 42.2542 84.1048 42.1591 84.9472C41.5045 88.511 39.2555 91.0419 39.2555 91.0419C38.6009 91.6975 38.6923 92.7304 39.3506 93.386C39.6321 93.668 40.1002 93.8548 40.4732 93.8548C40.9413 93.8548 41.3143 93.6681 41.691 93.2908C41.7861 93.1956 44.5946 90.1043 45.4357 85.5075C45.5308 84.6651 44.9676 83.8227 44.0315 83.6359Z" fill="url(#paint0_linear_1870_410340)"/>
<rect x="35.4258" y="62.4888" width="19.6596" height="26.6809" fill="#4A48B9"/>
<path fill-rule="evenodd" clip-rule="evenodd" d="M45.6085 33.0021C39.7791 33.0021 35.0318 37.7408 35.0318 43.5704V53.5616H26.6309V43.5704C26.6309 33.1069 35.145 24.5928 45.6085 24.5928C56.0719 24.5928 64.5861 33.1069 64.5861 43.5704V53.5616H56.1852V43.5704C56.1852 37.7405 51.4378 33.0021 45.6085 33.0021ZM25.0161 55.9708H66.1995C70.8425 55.9708 74.6004 59.7379 74.6004 64.3717V88.464C74.6004 93.1065 70.8422 96.8733 66.1995 96.8733H25.0161C20.3731 96.8733 16.6152 93.1067 16.6152 88.464V64.3717C16.6152 59.7376 20.3734 55.9708 25.0161 55.9708ZM49.4459 84.7002V77.8482C51.5416 76.5627 52.9317 74.2489 52.9317 71.624C52.9317 67.5851 49.6462 64.3087 45.6074 64.3087C41.5685 64.3087 38.283 67.5852 38.283 71.624C38.283 74.2489 39.6732 76.5627 41.7688 77.8482V84.7002C41.7688 86.8108 43.4789 88.5387 45.6074 88.5387C47.7359 88.5387 49.4459 86.8138 49.4459 84.7002Z" fill="url(#paint1_linear_1870_410340)"/>
<defs>
<linearGradient id="paint0_linear_1870_410340" x1="34" y1="97" x2="43.4236" y2="0.578934" gradientUnits="userSpaceOnUse">
<stop stop-color="#D7D7FF"/>
<stop offset="1" stop-color="#3A36E9"/>
</linearGradient>
<linearGradient id="paint1_linear_1870_410340" x1="45" y1="26.5" x2="3.07839" y2="87.583" gradientUnits="userSpaceOnUse">
<stop stop-color="#D7D7FF"/>
<stop offset="1" stop-color="#3A36E9"/>
</linearGradient>
</defs>
</svg>

<svg xmlns="http://www.w3.org/2000/svg" fill="none" viewBox="0 0 92 99"><path fill="url(#a)" d="M68.277 40.69c.281 1.406.468 32.162.468 45.38 0 .938-.75 1.689-1.59 1.689-.937 0-1.592-.751-1.592-1.593-.095-17.065-.186-43.132-.468-44.821-.186-.843.373-1.689 1.31-1.875.844-.282 1.685.374 1.872 1.22m-3.463-8.252c-4.305-6.19-11.326-9.941-18.91-9.941-12.638 0-22.84 10.218-22.84 22.877v21.001c0 .938.749 1.593 1.59 1.593s1.59-.75 1.59-1.593V45.377c0-10.784 8.8-19.596 19.565-19.596 6.458 0 12.452 3.187 16.101 8.535.468.75 1.5.937 2.245.468.94-.567 1.127-1.596.659-2.347m-18.91-2.44c-1.777 0-3.558.282-5.149.938a1.65 1.65 0 0 0-1.031 2.062 1.647 1.647 0 0 0 2.059 1.033c1.309-.469 2.713-.75 4.117-.75 6.648 0 11.984 5.438 11.984 12.002v.095c0 .374 1.968 33.287-2.059 44.634-.281.843.095 1.78 1.032 2.063.186.095.373.095.563.095.654 0 1.309-.374 1.5-1.125 4.212-11.816 2.435-43.974 2.34-45.945-.096-8.255-6.93-15.1-15.355-15.1zM33.92 45.283c0-2.53.75-4.97 2.245-6.937.563-.75.373-1.78-.373-2.249-.75-.564-1.777-.373-2.245.374-1.872 2.626-2.808 5.72-2.808 8.907 0 .282.563 28.034-6.367 40.884-.468.75-.095 1.78.654 2.249.282.095.564.187.75.187.563 0 1.123-.282 1.404-.843 7.395-13.692 6.835-41.448 6.74-42.572m18.442 23.35c-.937 0-1.686.655-1.686 1.593-.373 10.127-1.59 17.533-3.372 21.284-.373.842-.095 1.78.75 2.157.186.095.468.187.75.187.654 0 1.217-.374 1.499-.938 2.059-4.22 3.276-11.816 3.745-22.6-.092-.842-.75-1.592-1.686-1.684M45.904 37.5c-4.213 0-7.676 3.468-7.676 7.783 0 .373.468 33.382-6.553 43.787-.469.751-.282 1.78.468 2.25.281.186.563.281.936.281.563 0 1.031-.282 1.309-.75 7.676-11.252 7.208-44.352 7.116-45.663a4.4 4.4 0 0 1 4.4-4.407c2.435 0 4.399 1.971 4.399 4.407v.095c0 .095.468 7.688.468 16.878 0 .937.75 1.688 1.59 1.688.937 0 1.591-.75 1.591-1.593 0-8.908-.373-16.409-.468-17.065.19-4.314-3.273-7.691-7.58-7.691M7.425 28.314C14.17 13.31 29.147 3.466 45.622 3.37c.936 0 1.59-.75 1.59-1.688s-.75-1.594-1.59-1.594C27.93.184 11.733 10.776 4.43 26.998c-.373.842 0 1.78.841 2.157.187.096.469.187.655.187.563 0 1.221-.373 1.5-1.028M51.893.463c-.936-.096-1.686.564-1.872 1.406s.563 1.689 1.404 1.875C72.397 6.466 88.218 24.468 88.218 45.66c0 .938.75 1.593 1.59 1.593.936 0 1.591-.75 1.591-1.593C91.494 22.874 74.456 3.466 51.893.463M3.68 45.565c-.373-4.783.469-7.5 1.5-10.97l.186-.75c.282-.842-.281-1.78-1.122-2.062s-1.778.282-2.06 1.124l-.186.751C.968 37.313.031 40.504.404 45.848c.186 2.717.75 4.875 1.218 6.845s.84 3.564.75 4.97c-.096.938.563 1.69 1.499 1.78h.186c.841 0 1.5-.655 1.591-1.501.187-1.97-.282-3.937-.841-6.095-.468-1.78-.936-3.842-1.127-6.282M45.904 7.591a38.1 38.1 0 0 0-15.447 3.281c-.841.374-1.218 1.312-.841 2.158.373.842 1.309 1.22 2.154.842 4.494-1.97 9.175-3 14.042-3 19.096 0 34.734 15.567 34.734 34.79v8.156c0 .938.75 1.593 1.59 1.593.842 0 1.592-.75 1.592-1.593V45.66c.186-21.005-16.856-38.07-37.824-38.07M11.547 47.254l-.282-1.875c-1.777-10.783 6.74-22.786 15.543-28.694.75-.469.936-1.502.468-2.25-.468-.75-1.5-.937-2.245-.468-10.02 6.564-19.01 19.69-17.042 31.88l.282 1.97c1.59 9.75 2.527 15.659-1.123 23.256-.373.842-.095 1.78.75 2.157.187.095.468.187.75.187.563 0 1.218-.374 1.5-.938 4.113-8.534 3.085-15.098 1.4-25.225M59.664 18.28c-.84-.374-1.777-.095-2.154.75-.373.843-.095 1.78.75 2.25 9.175 4.688 14.979 13.969 14.979 24.283v35.535c0 .938.75 1.593 1.59 1.593.842 0 1.591-.75 1.591-1.593l.004-35.627c-.095-11.53-6.462-21.938-16.76-27.191m-40.91 27.005C18.1 39.19 20.346 33 24.935 27.842c5.336-5.908 13.203-9.472 20.97-9.472 2.34 0 4.585.282 6.834.842.841.187 1.777-.282 1.968-1.22.186-.842-.282-1.78-1.218-1.97-2.527-.656-5.054-.938-7.676-.938-8.707 0-17.506 3.938-23.404 10.597-5.244 5.812-7.676 12.94-7.022 20.064v.186c4.586 21.097-3.93 32.067-4.026 32.163-.563.75-.468 1.78.282 2.344.281.282.654.373 1.03.373.469 0 .937-.186 1.31-.564.465-.74 9.64-12.365 4.773-34.963M82.32 57.85c-.936 0-1.591.751-1.591 1.594v11.438c0 .938.75 1.593 1.59 1.593.842 0 1.591-.75 1.591-1.593l.004-11.438c0-.846-.75-1.594-1.594-1.594M23.622 71.447c-.936-.095-1.686.47-1.872 1.407-.282 2.062-1.686 7.875-4.027 9.94-.654.657-.75 1.69-.095 2.345.282.374.75.564 1.218.564.373 0 .75-.187 1.122-.469 3.559-3.282 4.868-10.97 5.054-11.907.1-.941-.464-1.788-1.4-1.88m23.968-25.88c-.095-.938-.841-1.594-1.686-1.594-.936.095-1.59.843-1.59 1.689 0 .186 1.03 20.16-1.124 33.569-.186.937.468 1.78 1.31 1.875h.281c.75 0 1.5-.564 1.59-1.407 2.341-13.6 1.31-33.29 1.219-34.133m-3.559 38.07c-.84-.187-1.777.469-1.872 1.311-.654 3.564-2.904 6.095-2.904 6.095-.654.656-.563 1.688.096 2.344.281.282.75.469 1.122.469.468 0 .841-.187 1.218-.564.095-.095 2.904-3.187 3.745-7.784a1.725 1.725 0 0 0-1.404-1.871" opacity=".1"/><path fill="#4A48B9" d="M35.426 62.489h19.66V89.17h-19.66z"/><path fill="url(#b)" fill-rule="evenodd" d="M45.609 33.002c-5.83 0-10.577 4.739-10.577 10.568v9.992H26.63V43.57c0-10.463 8.514-18.977 18.978-18.977 10.463 0 18.977 8.514 18.977 18.977v9.992h-8.4V43.57c0-5.83-4.748-10.568-10.577-10.568M25.016 55.971H66.2c4.642 0 8.4 3.767 8.4 8.4v24.093c0 4.642-3.758 8.41-8.4 8.41H25.016c-4.643 0-8.4-3.767-8.4-8.41V64.372c0-4.634 3.757-8.401 8.4-8.401m24.43 28.73v-6.853a7.3 7.3 0 0 0 3.486-6.224c0-4.039-3.286-7.315-7.325-7.315s-7.324 3.276-7.324 7.315a7.3 7.3 0 0 0 3.486 6.224V84.7a3.84 3.84 0 0 0 7.677 0" clip-rule="evenodd"/><defs><linearGradient id="a" x1="34" x2="43.424" y1="97" y2=".579" gradientUnits="userSpaceOnUse"><stop stop-color="#D7D7FF"/><stop offset="1" stop-color="#3A36E9"/></linearGradient><linearGradient id="b" x1="45" x2="3.078" y1="26.5" y2="87.583" gradientUnits="userSpaceOnUse"><stop stop-color="#D7D7FF"/><stop offset="1" stop-color="#3A36E9"/></linearGradient></defs></svg>
